X:1
T:2 Duette, Op.6
T:Frühlingsanfang
T:2 Duette, Op.6
T:1. Frühlingsanfang 
T:Luise Adolpha Le Beau
T:Friedrich Oser
T:Creative Commons copyright waiver (CC0 1.0 Universal)
T:Creative Commons copyright waiver (CC0 1.0 Universal)
T:Creative Commons copyright waiver (CC0 1.0 Universal)
T:Creative Commons copyright waiver (CC0 1.0 Universal)
C:Luise Adolpha Le Beau
Z:Friedrich Oser
Z:Creative Commons copyright waiver (CC0 1.0 Universal)
L:1/8
Q:1/4=144
M:4/4
K:Ab
V:1 treble nm="Soprano 1"
V:1
"^Schnell" z4 z2 z!mf! E | c2 B B A2 E E |!<(! e2 d d c z z A | f2 f2 e2 e e!<)! | d4 z2 z!mf! d | %5
w: Der|Schnee ist ver- gan- gen, der|Win- ter ist weg, her-|vor, ihr Blu- men, her-|vor! März-|
 d2 d c B2 E E | e2 d d c2 z!<(! A | fe d A FA d e | f2 e2!<)! d2 z!f! f | e2 c2 B2 c B | %10
w: glöck- chen und Veil- chen im|Dor- nen- ge- heg, Mas-|lieb- * chen und Pri- * meln am|Wie- sen- steg, her-|vor, ihr Blu- men her-|
 A2 z2 z2 z f | e2 c2 B2 c B | A2 z2 z2!mf! A2 | e2 e e e2 f!>(! e | d2 cB A2!>)! z A | %15
w: vor! Her-|vor, ihr Blu- men, her-|vor! Der|Früh- ling will kom- men gar|bald, gar * bald, her-|
!<(! e3 A e2 A A!<)! | f4 z2!f! f2 | f3 f f2 =g f | e2 cd e2 z!mf! c | B2 f e d2 c=B | %20
w: an, ihr Vö- gel her-|an! Kommt,|sin- get ihm dass es|schallt und * hallt, und|bau- et das Nest im *|
 c2 c c e2 z!f! A | d2 d2 e2 e A | f4 z2 z!mf! A | c2 ce B2 c B | A4 z4 | z4 z2!mf! E2 | %26
w: lu- sti- gen Wald, her-|an! ihr Vö- gel, her-|an! her-|an! ihr * Vö- gel, her-|an!|Auf|
 c2 B B A2 E2 |!<(! e2 d2 c2 z A | f2 f2 e2 e e!<)! | d4 z2 z!mf! d | d2 d c B3 E | %31
w: freu- e Dich mit, Du|Men- schen- kind! Hin-|weg ihr Sor- gen, hin-|weg! Her-|aus, aus dem Haus, ge-|
 e2 d2 c2 z!<(! A | fe d A FA d e | f2 e2 d2!<)! z!f! f | e2 c2 B2 c B | A2 z2 z2 z f | %36
w: schwind, ge- schwind, und|sing * mit dem fröh- * li- chen|Mor- gen- wind: Hin-|weg, ihr Sor- gen, hin-|weg! Hin-|
 e2 c2 B2 c B | A2 z2 z4 | z8 | z8 | !fermata!z8 |] %41
w: weg, ihr Sor- gen, hin-|weg!||||

